X:1
T:O Speak to Me, Dear Jesus
T:O Speak to Me, Dear Jesus
T:J. W. Pratt
T:Mrs. J. Street, 1878
T:Public Domain Courtesy of the Cyber Hymnal™
T:Public Domain Courtesy of the Cyber Hymnal™
C:J. W. Pratt
Z:Public Domain
Z:Courtesy of the Cyber Hymnal™
%%score ( 1 2 ) ( 3 4 )
L:1/8
Q:1/4=108
M:4/4
K:Ab
V:1 treble 
V:2 treble 
V:3 bass 
V:4 bass 
V:1
 [CE]2 | [Ec]3 [DB] [CA]2 [DF]2 | [CE]2 [EA]4 [EA]2 | [EB]3 [EB] [EA]2 [EB]2 | [Ec]4 z2 [EA]2 | %5
w: 1.~O|speak to me, dear|Je- sus, This|world is wide and|cold, And|
w: 2.~O|speak to me, dear|Je- sus, When|wild temp- ta- tions|rise; Tear|
w: 3.~Speak|Thou to me, dear|Je- sus, As|once, in old- en|times, Thou|
w: 4.~Then|whis- per to me,|Je- sus, Deep,|deep with- in my|soul; And|
 [FA]3 F (BA) ([EG][DF]) | [DF]2 [CE]2 [CE]2 (E>A) | [DG]3 [DG] [DF]2 [DG]2 | [CA]4 z2 E2 | %9
w: some- thing in * its *|wea- ry round Makes *|sad the heart and|old; Then|
w: from my heart * each *|i- dle hope, These *|ref- ug- es of|lies: Build|
w: didst in lone- * ly *|Pat- mos isle In *|vi- sioned bright- ness|shine, Be-|
w: thus, the ac- * tions *|vi- si- ble, By *|hid- den springs con-|trol; Each|
 [EB]3 [DG] [CE]2 [B,D]2 | [A,C]2 [CE]4 [Ec]2 | [EB]3 [FA] [EG]2 (cB) | [EB]4 z2 [Ed]2 | %13
w: speak to me, dear|Je- sus, Some|ten- der word of *|Thine, Till|
w: me up- on Thee,|Je- sus, Lest|slip- ping I should *|fall; I|
w: fore the loved A-|pos- tle, Till|all His sad- ness *|fled, As|
w: day must have an|end- ing, Each|day, how- ev- er *|long; Time’s|
 [Ec]3 [Ec] [EB]2 [EA]2 | [EG]2 [DF]4 [DF]2 | [CE]3 [Ec] [DB]3 [B,G] | [CA]6 |] %17
w: all the soul with-|in me Leaps|up with life di-|vine.|
w: shi- ver ’mid the|dark- ness: Be|Thou my all in|all.|
w: stand- ing there in|glo- ry, In|spir- it he was|led.|
w: notes e’en now are|blend- ing With|Heav’n’s e- ter- nal|song.|
V:2
 x2 | x8 | x8 | x8 | x8 | x3 F F2 x2 | x6 E2 | x8 | x6 E2 | x8 | x8 | x6 =D2 | x8 | x8 | x8 | x8 | %16
 x6 |] %17
V:3
 [A,,A,]2 | [A,,A,]3 [A,,A,] [A,,A,]2 [A,,A,]2 | [A,,A,]2 [A,,C]4 [C,A,]2 | %3
 [E,G,]3 [E,G,] [C,A,]2 [E,G,]2 | A,4 z2 [C,A,]2 | [D,A,]3 [D,A,] [D,A,]2 [D,A,]2 | %6
 [A,,A,]2 [A,,A,]2 [A,,A,]2 [C,A,]2 | [E,B,]3 [E,B,] [E,B,]2 E,2 | [A,,E,]4 z2 E,2 | %9
 [E,G,]3 [E,G,] [E,G,]2 [E,G,]2 | [A,,A,]2 [A,,A,]4 A,2 | [G,B,]3 [A,C] B,2 [B,,A,]2 | %12
 [E,G,]4 z2 [E,G,]2 | [A,,A,]3 [A,,A,] [B,,G,]2 [C,A,]2 | [D,A,]2 [D,A,]4 [D,A,]2 | %15
 [E,A,]3 [E,A,] [E,G,]3 E, | [A,,E,]6 |] %17
V:4
 x2 | x8 | x8 | x8 | A,4 x4 | x8 | x8 | x6 E,2 | x6 E,2 | x8 | x6 A,2 | x4 B,2 x2 | x8 | x8 | x8 | %15
 x7 E, | x6 |] %17

